X:98
T: Maibaum und Abschied
N: A0114
O: Europa, Mitteleuropa, Deutschland
N: Souterliedekens 1540 ad Ps. 54.
R: Romanze, Ballade, Lied
M: 4/2
L: 1/4
K: A
A2 | A2A2A2B2 | =c3BA2=GF | =G4E4z2
G2 | A2B4A4G2 | A4z2
A2 | A2A2A2B2 | =c3BA2=GF | =G4E4z2
G2 | A2B4A4G2 | A4z2
B2 | B2B2B2A2 | d3=cB2A=G | A4=G4z2
G2 | B4=G2d4=c2 | d3=cB2A=G | A4z2
d2 | A2A2A2B2 | =c3BA2=GF | =G4E4z2
G2 | A2B4A4G2 | A6

@@@ Tune index: 98
